src/actions/16/view-financial-account-delete.svg

<svg viewBox="0 0 16 16" xmlns="http://www.w3.org/2000/svg">
  <style type="text/css" id="current-color-scheme">
    .ColorScheme-Text {
      color:#363636;
    }
    .ColorScheme-NegativeText {
      color:#da4453;
    }
  </style>
<path
    d="m3 2v6h-2v1h8v-1h-5v-5h10v5h1v-6zm2 2v1h4v-1zm0 2v1h3v-1zm-4 4v4h8v-4zm5 1h2v2h-2zm-4 1h1v1h-1zm2 0h1v1h-1z"
    style="fill:currentColor;fill-opacity:1;stroke:none"
    class="ColorScheme-Text"
    />
<path
    d="M 10 4 L 10 5 L 13 5 L 13 4 L 10 4 z M 10.707031 9 L 10 9.7070312 L 11.792969 11.5 L 10 13.292969 L 10.707031 14 L 12.5 12.207031 L 14.292969 14 L 15 13.292969 L 13.207031 11.5 L 15 9.7070312 L 14.292969 9 L 12.5 10.792969 L 10.707031 9 z "
    style="fill:currentColor;fill-opacity:1;stroke:none"
    class="ColorScheme-NegativeText"
    />
</svg>

<svg xmlns="http://www.w3.org/2000/svg" viewBox="0 0 16 16">
    <path d="M3 2v6H1v1h8V8H4V3h10v5h1V2zm2 2v1h4V4zm0 2v1h3V6zm-4 4v4h8v-4zm5 1h2v2H6zm-4 1h1v1H2zm2 0h1v1H4z" style="fill:currentColor;fill-opacity:1;stroke:none;color:#050505;opacity:.7"/>
    <path d="M10 4v1h3V4h-3zm.707 5L10 9.707l1.793 1.793L10 13.293l.707.707 1.793-1.793L14.293 14l.707-.707-1.793-1.793L15 9.707 14.293 9 12.5 10.793 10.707 9z" style="fill:currentColor;fill-opacity:1;stroke:none;color:#d98c8c"/>
</svg>
